svg/material-icons/sports_golf/materialiconstwotone/20px.svg

<svg xmlns="http://www.w3.org/2000/svg" width="20" height="20" viewBox="0 0 20 20"><path d="M10 4C7.79 4 6 5.79 6 8s1.79 4 4 4 4-1.79 4-4-1.79-4-4-4zM8.5 7c-.28 0-.5-.22-.5-.5s.22-.5.5-.5.5.22.5.5-.22.5-.5.5zM10 6c-.28 0-.5-.22-.5-.5s.22-.5.5-.5.5.22.5.5-.22.5-.5.5zm1.5 1c-.28 0-.5-.22-.5-.5s.22-.5.5-.5.5.22.5.5-.22.5-.5.5z" opacity=".3"/><path d="M10 3C7.24 3 5 5.24 5 8s2.24 5 5 5 5-2.24 5-5-2.24-5-5-5zm0 9c-2.21 0-4-1.79-4-4s1.79-4 4-4 4 1.79 4 4-1.79 4-4 4z"/><circle cx="8.5" cy="6.5" r=".5"/><circle cx="11.5" cy="6.5" r=".5"/><circle cx="10" cy="5.5" r=".5"/><path d="M7 15h1.5c.55 0 1 .45 1 1v1h1v-1c0-.55.45-1 1-1H13v-1H7v1z"/></svg>

<svg xmlns="http://www.w3.org/2000/svg" enable-background="new 0 0 20 20" height="20" viewBox="0 0 20 20" width="20"><g><rect fill="none" height="20" width="20"/></g><g><g><path d="M10,4C7.79,4,6,5.79,6,8c0,2.21,1.79,4,4,4s4-1.79,4-4C14,5.79,12.21,4,10,4z M8.5,7C8.22,7,8,6.78,8,6.5 C8,6.22,8.22,6,8.5,6S9,6.22,9,6.5C9,6.78,8.78,7,8.5,7z M10,6C9.72,6,9.5,5.78,9.5,5.5C9.5,5.22,9.72,5,10,5s0.5,0.22,0.5,0.5 C10.5,5.78,10.28,6,10,6z M11.5,7C11.22,7,11,6.78,11,6.5C11,6.22,11.22,6,11.5,6S12,6.22,12,6.5C12,6.78,11.78,7,11.5,7z" opacity=".3"/><path d="M10,3C7.24,3,5,5.24,5,8s2.24,5,5,5s5-2.24,5-5S12.76,3,10,3z M10,12c-2.21,0-4-1.79-4-4c0-2.21,1.79-4,4-4s4,1.79,4,4 C14,10.21,12.21,12,10,12z"/><circle cx="8.5" cy="6.5" r=".5"/><circle cx="11.5" cy="6.5" r=".5"/><circle cx="10" cy="5.5" r=".5"/><path d="M7,15h1.5c0.55,0,1,0.45,1,1v1h1v-1c0-0.55,0.45-1,1-1H13v-1H7V15z"/></g></g></svg>
